src/assets/img/compass.svg

<svg width="248" height="248" viewBox="0 0 248 248" fill="none" xmlns="http://www.w3.org/2000/svg">
<g filter="url(#filter0_d_160_955)">
  <ellipse cx="124" cy="123.5" rx="120" ry="116.5" fill="black"/>
  <path d="M243.5 123.5C243.5 187.551 190.012 239.5 124 239.5C57.9879 239.5 4.5 187.551 4.5 123.5C4.5 59.4488 57.9879 7.5 124 7.5C190.012 7.5 243.5 59.4488 243.5 123.5Z" stroke="#E8E8E8"/>
</g>
<ellipse cx="124" cy="124" rx="40" ry="40" fill="#424242"/>
<line x1="124.5" y1="186" x2="124.5" y2="70" stroke="#C8C8C8"/>
<line x1="65" y1="124.5" x2="186" y2="124.5" stroke="#C8C8C8"/>
<path d="M126 53L126 71H124L115 58H115V71H112V53H115L124 66H126V53Z" fill="white"/>
<path d="M187.105 139L182.264 121.545H185.034L188.434 135.062H188.596L192.133 121.545H194.877L198.414 135.071H198.576L201.968 121.545H204.747L199.897 139H197.247L193.574 125.926H193.437L189.764 139H187.105Z" fill="white"/>
<path d="M128.715 196.131C128.624 195.324 128.249 194.699 127.59 194.256C126.931 193.807 126.101 193.582 125.101 193.582C124.385 193.582 123.766 193.696 123.243 193.923C122.721 194.145 122.314 194.452 122.025 194.844C121.74 195.23 121.598 195.67 121.598 196.165C121.598 196.58 121.695 196.937 121.888 197.239C122.087 197.54 122.346 197.793 122.664 197.997C122.988 198.196 123.334 198.364 123.703 198.5C124.073 198.631 124.428 198.739 124.769 198.824L126.473 199.267C127.03 199.403 127.601 199.588 128.186 199.821C128.772 200.054 129.314 200.361 129.814 200.741C130.314 201.122 130.718 201.594 131.025 202.156C131.337 202.719 131.493 203.392 131.493 204.176C131.493 205.165 131.238 206.043 130.726 206.81C130.221 207.577 129.485 208.182 128.519 208.625C127.559 209.068 126.397 209.29 125.033 209.29C123.726 209.29 122.596 209.082 121.641 208.668C120.686 208.253 119.939 207.665 119.4 206.903C118.86 206.136 118.561 205.227 118.505 204.176H121.147C121.198 204.807 121.402 205.332 121.76 205.753C122.124 206.168 122.587 206.477 123.15 206.682C123.718 206.881 124.34 206.98 125.016 206.98C125.76 206.98 126.422 206.864 127.002 206.631C127.587 206.392 128.047 206.062 128.382 205.642C128.718 205.216 128.885 204.719 128.885 204.151C128.885 203.634 128.738 203.21 128.442 202.881C128.152 202.551 127.757 202.278 127.257 202.062C126.763 201.847 126.203 201.656 125.578 201.491L123.516 200.929C122.118 200.548 121.01 199.989 120.192 199.25C119.38 198.511 118.973 197.534 118.973 196.318C118.973 195.312 119.246 194.435 119.792 193.685C120.337 192.935 121.076 192.352 122.007 191.938C122.939 191.517 123.99 191.307 125.161 191.307C126.343 191.307 127.385 191.514 128.289 191.929C129.198 192.344 129.914 192.915 130.436 193.642C130.959 194.364 131.232 195.193 131.255 196.131H128.715Z" fill="white"/>
<path d="M52.1871 139V121.545H63.1303V123.812H54.8207V129.131H62.5593V131.389H54.8207V136.733H63.2326V139H52.1871Z" fill="white"/>
<line x1="123.5" y1="238" x2="123.5" y2="218" stroke="white" stroke-width="3"/>
<line x1="124.5" y1="26" x2="124.5" y2="6" stroke="#C8C8C8"/>
<line x1="222" y1="124.5" x2="242" y2="124.5" stroke="white" stroke-width="3"/>
<line x1="6" y1="124.5" x2="26" y2="124.5" stroke="white" stroke-width="3"/>
<line y1="-1" x2="20.7218" y2="-1" transform="matrix(0.927368 0.374151 -0.391343 0.920245 12.7998 82.5977)" stroke="#C8C8C8" stroke-width="2"/>
<line y1="-1" x2="20.7218" y2="-1" transform="matrix(0.927368 0.374151 -0.391343 0.920245 213.6 161.298)" stroke="#C8C8C8" stroke-width="2"/>
<line y1="-1" x2="20.5316" y2="-1" transform="matrix(0.716349 -0.697742 0.716349 0.697742 196.8 59.521)" stroke="white" stroke-width="2"/>
<line y1="-1" x2="20.7218" y2="-1" transform="matrix(0.927368 -0.374151 0.391343 0.920245 216 91.1294)" stroke="#C8C8C8" stroke-width="2"/>
<line y1="-1" x2="20.5316" y2="-1" transform="matrix(0.716349 -0.697742 0.716349 0.697742 43.1997 208.352)" stroke="white" stroke-width="2"/>
<line y1="-1" x2="20.7218" y2="-1" transform="matrix(0.927368 -0.374151 0.391343 0.920245 30.7216 156.902)" stroke="#C8C8C8" stroke-width="2"/>
<defs>
  <filter id="filter0_d_160_955" x="0" y="0" width="248" height="248" filterUnits="userSpaceOnUse" color-interpolation-filters="sRGB">
    <feFlood flood-opacity="0" result="BackgroundImageFix"/>
    <feColorMatrix in="SourceAlpha" type="matrix" values="0 0 0 0 0 0 0 0 0 0 0 0 0 0 0 0 0 0 127 0" result="hardAlpha"/>
    <feOffset dy="4"/>
    <feGaussianBlur stdDeviation="2"/>
    <feComposite in2="hardAlpha" operator="out"/>
    <feColorMatrix type="matrix" values="0 0 0 0 0 0 0 0 0 0 0 0 0 0 0 0 0 0 0.12 0"/>
    <feBlend mode="normal" in2="BackgroundImageFix" result="effect1_dropShadow_160_955"/>
    <feBlend mode="normal" in="SourceGraphic" in2="effect1_dropShadow_160_955" result="shape"/>
  </filter>
</defs>
</svg>

<?xml version="1.0"?>
<svg width="248" height="248" xmlns="http://www.w3.org/2000/svg" xmlns:svg="http://www.w3.org/2000/svg">
 <defs>
  <filter color-interpolation-filters="sRGB" filterUnits="userSpaceOnUse" height="241" id="filter0_d_160_955" width="248" x="0" y="7">
   <feFlood flood-opacity="0" result="BackgroundImageFix"/>
   <feColorMatrix in="SourceAlpha" result="hardAlpha" type="matrix" values="0 0 0 0 0 0 0 0 0 0 0 0 0 0 0 0 0 0 127 0"/>
   <feOffset dy="4"/>
   <feGaussianBlur stdDeviation="2"/>
   <feComposite in2="hardAlpha" operator="out"/>
   <feColorMatrix type="matrix" values="0 0 0 0 0 0 0 0 0 0 0 0 0 0 0 0 0 0 0.25 0"/>
   <feBlend in2="BackgroundImageFix"/>
   <feBlend in="SourceGraphic" in2="effect1_dropShadow_160_955"/>
  </filter>
 </defs>
 <g class="layer">
  <title>Layer 1</title>
  <g filter="url(#filter0_d_160_955)" id="svg_1">
   <ellipse cx="124" cy="123.5" fill="black" id="svg_2" rx="120" ry="116.5"/>
   <path d="m243.5,123.5c0,64.05 -53.49,116 -119.5,116c-66.01,0 -119.5,-51.95 -119.5,-116c0,-64.05 53.49,-116 119.5,-116c66.01,0 119.5,51.95 119.5,116z" id="svg_3" stroke="#E8E8E8"/>
  </g>
  <ellipse cx="125" cy="127.5" fill="#424242" id="svg_4" rx="40" ry="38.5"/>
  <line id="svg_5" stroke="#C8C8C8" x1="124.5" x2="124.5" y1="186" y2="70"/>
  <line id="svg_6" stroke="#C8C8C8" x1="65" x2="186" y1="126.5" y2="126.5"/>
  <path d="m132.04,53.55l0,17.45l-2.42,0l-8.87,-12.8l-0.16,0l0,12.8l-2.64,0l0,-17.45l2.44,0l8.88,12.81l0.16,0l0,-12.81l2.61,0z" fill="white" id="svg_7"/>
  <path d="m128.72,196.13c-0.1,-0.81 -0.47,-1.43 -1.13,-1.87c-0.66,-0.45 -1.49,-0.68 -2.49,-0.68c-0.71,0 -1.33,0.12 -1.86,0.34c-0.52,0.23 -0.93,0.53 -1.21,0.92c-0.29,0.39 -0.43,0.83 -0.43,1.32c0,0.42 0.09,0.78 0.29,1.08c0.2,0.3 0.46,0.55 0.77,0.76c0.33,0.2 0.67,0.36 1.04,0.5c0.37,0.13 0.73,0.24 1.07,0.32l1.7,0.45c0.56,0.13 1.13,0.32 1.72,0.55c0.58,0.23 1.12,0.54 1.62,0.92c0.5,0.38 0.91,0.85 1.22,1.42c0.31,0.56 0.46,1.23 0.46,2.02c0,0.98 -0.25,1.86 -0.76,2.63c-0.51,0.77 -1.24,1.37 -2.21,1.82c-0.96,0.44 -2.12,0.66 -3.49,0.66c-1.3,0 -2.43,-0.21 -3.39,-0.62c-0.95,-0.42 -1.7,-1.01 -2.24,-1.77c-0.54,-0.76 -0.84,-1.67 -0.9,-2.72l2.65,0c0.05,0.63 0.25,1.15 0.61,1.57c0.36,0.42 0.83,0.73 1.39,0.93c0.57,0.2 1.19,0.3 1.87,0.3c0.74,0 1.4,-0.12 1.98,-0.35c0.59,-0.24 1.05,-0.57 1.38,-0.99c0.34,-0.42 0.5,-0.92 0.5,-1.49c0,-0.52 -0.14,-0.94 -0.44,-1.27c-0.29,-0.33 -0.68,-0.6 -1.18,-0.82c-0.5,-0.21 -1.06,-0.4 -1.68,-0.57l-2.06,-0.56c-1.4,-0.38 -2.51,-0.94 -3.33,-1.68c-0.81,-0.74 -1.22,-1.72 -1.22,-2.93c0,-1.01 0.28,-1.88 0.82,-2.63c0.55,-0.75 1.29,-1.34 2.22,-1.75c0.93,-0.42 1.98,-0.63 3.15,-0.63c1.18,0 2.23,0.2 3.13,0.62c0.91,0.41 1.62,0.98 2.15,1.71c0.52,0.72 0.79,1.55 0.81,2.49l-2.53,0z" fill="white" id="svg_9"/>
  <line id="svg_11" stroke="white" stroke-width="3" x1="123.5" x2="123.5" y1="238" y2="218"/>
  <line id="svg_12" stroke="#C8C8C8" x1="124.5" x2="124.5" y1="26" y2="6"/>
  <line id="svg_13" stroke="white" stroke-width="3" x1="222" x2="242" y1="125.5" y2="125.5"/>
  <line id="svg_14" stroke="white" stroke-width="3" x1="6" x2="26" y1="125.5" y2="125.5"/>
  <line id="svg_15" stroke="#C8C8C8" stroke-width="2" transform="matrix(0.927368 0.374151 -0.391343 0.920245 12.7998 82.5977)" x2="20.72" y1="-1" y2="-1"/>
  <line id="svg_16" stroke="#C8C8C8" stroke-width="2" transform="matrix(0.927368 0.374151 -0.391343 0.920245 213.6 161.298)" x2="20.72" y1="-1" y2="-1"/>
  <line id="svg_17" stroke="white" stroke-width="2" transform="matrix(0.716349 -0.697742 0.716349 0.697742 196.8 59.521)" x2="20.53" y1="-1" y2="-1"/>
  <line id="svg_18" stroke="#C8C8C8" stroke-width="2" transform="matrix(0.927368 -0.374151 0.391343 0.920245 216 91.1294)" x2="20.72" y1="-1" y2="-1"/>
  <line id="svg_19" stroke="white" stroke-width="2" transform="matrix(0.716349 -0.697742 0.716349 0.697742 43.1997 208.352)" x2="20.53" y1="-1" y2="-1"/>
  <line id="svg_20" stroke="#C8C8C8" stroke-width="2" transform="matrix(0.391343 0.920245 -0.927368 0.374151 164 209.61)" x2="20.34" y1="-1" y2="-1"/>
  <line id="svg_21" stroke="#C8C8C8" stroke-width="2" transform="matrix(0.391343 0.920245 -0.927368 0.374151 72.7998 19.4805)" x2="20.34" y1="-1" y2="-1"/>
  <line id="svg_22" stroke="#C8C8C8" stroke-width="2" transform="matrix(0.391343 -0.920245 0.927368 0.374151 80.7998 230.666)" x2="20.34" y1="-1" y2="-1"/>
  <line id="svg_23" stroke="#C8C8C8" stroke-width="2" transform="matrix(0.391343 -0.920245 0.927368 0.374151 168 38.1978)" x2="20.34" y1="-1" y2="-1"/>
  <line id="svg_24" stroke="#C8C8C8" stroke-width="2" transform="matrix(0.927368 -0.374151 0.391343 0.920245 16.8003 172.948)" x2="20.72" y1="-1" y2="-1"/>
  <line id="svg_25" stroke="#C8C8C8" stroke-width="2" transform="matrix(0.981839 -0.189715 0.19957 0.979883 8.80029 151.567)" x2="18.53" y1="-1" y2="-1"/>
  <line id="svg_26" stroke="#C8C8C8" stroke-width="2" transform="matrix(0.981839 -0.189715 0.19957 0.979883 222.4 107.931)" x2="18.53" y1="-1" y2="-1"/>
  <line id="svg_27" stroke="#C8C8C8" stroke-width="2" transform="matrix(0.981841 0.189707 -0.199562 0.979885 221.6 145.714)" x2="18.53" y1="-1" y2="-1"/>
  <line id="svg_28" stroke="#C8C8C8" stroke-width="2" transform="matrix(0.981841 0.189707 -0.199562 0.979885 7.19971 104.416)" x2="18.53" y1="-1" y2="-1"/>
  <line id="svg_29" stroke="#C8C8C8" stroke-width="2" transform="matrix(0.838128 0.545473 -0.565687 0.82462 23.2002 62.3379)" x2="18.4" y1="-1" y2="-1"/>
  <line id="svg_30" stroke="#C8C8C8" stroke-width="2" transform="matrix(0.838128 0.545473 -0.565687 0.82462 207.2 176.883)" x2="18.4" y1="-1" y2="-1"/>
  <line id="svg_31" stroke="#C8C8C8" stroke-width="2" transform="matrix(0.635918 -0.771757 0.787838 0.615883 60 221.361)" x2="18.25" y1="-1" y2="-1"/>
  <line id="svg_32" stroke="#C8C8C8" stroke-width="2" transform="matrix(0.635918 -0.771757 0.787838 0.615883 184.8 45.2573)" x2="18.25" y1="-1" y2="-1"/>
  <line id="svg_33" stroke="#C8C8C8" stroke-width="2" transform="matrix(0.635918 0.771757 -0.787838 0.615883 52.7998 31.1689)" x2="18.25" y1="-1" y2="-1"/>
  <line id="svg_34" stroke="#C8C8C8" stroke-width="2" transform="matrix(0.635918 0.771757 -0.787838 0.615883 181.6 202.597)" x2="18.25" y1="-1" y2="-1"/>
  <line id="svg_35" stroke="#C8C8C8" stroke-width="2" transform="matrix(0.200087 0.979778 -0.981744 0.190209 145.6 218.182)" x2="18.08" y1="-1" y2="-1"/>
  <line id="svg_36" stroke="#C8C8C8" stroke-width="2" transform="matrix(0.200087 -0.979778 0.981744 0.190209 101.6 236.678)" x2="18.08" y1="-1" y2="-1"/>
  <line id="svg_37" stroke="#C8C8C8" stroke-width="2" transform="matrix(0.200087 -0.979778 0.981744 0.190209 149.6 28.6265)" x2="18.08" y1="-1" y2="-1"/>
  <line id="svg_38" stroke="#C8C8C8" stroke-width="2" transform="matrix(0.200087 0.979778 -0.981744 0.190209 96 10.9092)" x2="18.08" y1="-1" y2="-1"/>
  <line id="svg_39" stroke="#C8C8C8" stroke-width="2" transform="matrix(0.838128 -0.545473 0.565687 0.82462 28.7998 192.374)" x2="18.4" y1="-1" y2="-1"/>
  <line id="svg_40" stroke="#C8C8C8" stroke-width="2" transform="matrix(0.838128 -0.545473 0.565687 0.82462 210.4 74.7114)" x2="18.4" y1="-1" y2="-1"/>
  <line id="svg_41" stroke="white" stroke-width="2" transform="matrix(0.716349 0.697742 -0.716349 0.697742 36.7998 45.1948)" x2="20.53" y1="-1" y2="-1"/>
  <line id="svg_42" stroke="white" stroke-width="2" transform="matrix(0.716349 0.697742 -0.716349 0.697742 193.6 190.13)" x2="20.53" y1="-1" y2="-1"/>
  <path d="m125.5,2l9.09,25.5l-18.18,0l9.09,-25.5z" fill="#EA352B" id="svg_43"/>
  <path d="m44.09,135.72l-4.84,-17.45l2.77,0l3.4,13.51l0.17,0l3.53,-13.51l2.75,0l3.53,13.52l0.17,0l3.39,-13.52l2.78,0l-4.85,17.45l-2.65,0l-3.68,-13.07l-0.13,0l-3.68,13.07l-2.66,0z" fill="white" id="svg_44"/>
  <path d="m195.98,135.72l0,-17.45l10.94,0l0,2.26l-8.31,0l0,5.32l7.74,0l0,2.26l-7.74,0l0,5.34l8.41,0l0,2.27l-11.04,0z" fill="white" id="svg_45"/>
 </g>
</svg>
